images/icons/white-logo-5.svg

<svg width="80" height="42" viewBox="0 0 80 42" fill="none" xmlns="http://www.w3.org/2000/svg">
<path d="M2.33447 24.3757H4.57837V35.5951H2.33447V24.3757Z" fill="white"/>
<path d="M5.87982 31.7512C5.87834 30.9453 6.11133 30.1571 6.54931 29.4863C6.98729 28.8155 7.61057 28.2923 8.34025 27.9829C9.06992 27.6734 9.87324 27.5917 10.6485 27.748C11.4238 27.9043 12.1362 28.2916 12.6955 28.8609C13.2549 29.4302 13.636 30.1559 13.7907 30.9461C13.9455 31.7364 13.8668 32.5557 13.5647 33.3004C13.2626 34.045 12.7507 34.6815 12.0937 35.1294C11.4367 35.5774 10.6642 35.8164 9.87396 35.8164C9.34833 35.8225 8.82691 35.7216 8.3401 35.5195C7.85332 35.3175 7.41095 35.0184 7.03896 34.6398C6.66697 34.2612 6.37283 33.8107 6.17379 33.3146C5.97475 32.8186 5.8748 32.2871 5.87982 31.7512ZM11.6092 31.7512C11.6004 31.4033 11.4911 31.0657 11.2952 30.7809C11.0992 30.4959 10.8252 30.2763 10.5075 30.1493C10.1897 30.0224 9.84227 29.9939 9.50873 30.0672C9.17511 30.1405 8.87016 30.3126 8.6319 30.5617C8.39372 30.8109 8.23285 31.1262 8.16948 31.4682C8.10604 31.8101 8.14295 32.1636 8.27546 32.4842C8.40806 32.8049 8.63039 33.0786 8.91467 33.2711C9.19903 33.4635 9.53265 33.5663 9.87396 33.5664C10.1074 33.5731 10.3397 33.5303 10.5562 33.4408C10.7726 33.3514 10.9686 33.2171 11.1317 33.0465C11.2947 32.8759 11.4214 32.6728 11.5035 32.4499C11.5857 32.2269 11.6217 31.989 11.6092 31.7512Z" fill="white"/>
<path d="M22.8884 27.9071V35.2138C22.8884 37.7994 20.9063 38.8901 18.9018 38.8901C18.1969 38.9436 17.4912 38.7982 16.8619 38.4699C16.2326 38.1417 15.704 37.6432 15.334 37.0291L17.2638 35.8927C17.4169 36.2073 17.6592 36.468 17.9592 36.6407C18.2593 36.8133 18.6033 36.8902 18.9467 36.8612C19.1726 36.8997 19.4042 36.8847 19.6236 36.8173C19.843 36.75 20.0443 36.6323 20.212 36.4731C20.3796 36.3139 20.5092 36.1175 20.5907 35.8992C20.6722 35.6809 20.7034 35.4464 20.6819 35.2138V34.5045C20.4182 34.8355 20.0815 35.0984 19.6995 35.2719C19.3175 35.4455 18.9007 35.5249 18.4829 35.5037C17.4673 35.5037 16.4932 35.0922 15.775 34.3599C15.0568 33.6276 14.6533 32.6343 14.6533 31.5986C14.6533 30.5629 15.0568 29.5696 15.775 28.8373C16.4932 28.105 17.4673 27.6935 18.4829 27.6935C18.9004 27.6741 19.3166 27.7543 19.6984 27.9277C20.0802 28.1012 20.417 28.3631 20.6819 28.6926V27.9299L22.8884 27.9071ZM20.6819 31.5986C20.6969 31.2277 20.6026 30.8607 20.4114 30.5447C20.2201 30.2288 19.9406 29.9784 19.6087 29.8258C19.2768 29.6732 18.9077 29.6253 18.5489 29.6883C18.1901 29.7512 17.858 29.9222 17.5953 30.1791C17.3324 30.4361 17.1511 30.7674 17.0744 31.1303C16.9976 31.4932 17.0292 31.8712 17.1648 32.2157C17.3005 32.5603 17.5341 32.8555 17.8357 33.0636C18.1372 33.2717 18.4928 33.383 18.8569 33.3833C19.0946 33.4004 19.3331 33.3667 19.5571 33.2841C19.7812 33.2014 19.9858 33.072 20.1577 32.9038C20.3296 32.7356 20.4651 32.5326 20.5554 32.3078C20.6457 32.083 20.6888 31.8414 20.6819 31.5986Z" fill="white"/>
<path d="M24.1823 31.7512C24.1808 30.9453 24.4138 30.1571 24.8518 29.4863C25.2898 28.8155 25.9131 28.2923 26.6427 27.9829C27.3724 27.6734 28.1757 27.5917 28.951 27.748C29.7263 27.9043 30.4387 28.2916 30.9981 28.8609C31.5574 29.4302 31.9385 30.1559 32.0933 30.9461C32.248 31.7364 32.1693 32.5557 31.8672 33.3004C31.5651 34.045 31.0532 34.6815 30.3963 35.1294C29.7392 35.5774 28.9667 35.8164 28.1765 35.8164C27.6509 35.8225 27.1294 35.7216 26.6426 35.5195C26.1558 35.3175 25.7134 35.0184 25.3414 34.6398C24.9695 34.2612 24.6753 33.8107 24.4763 33.3146C24.2772 32.8186 24.1772 32.2871 24.1823 31.7512ZM29.9117 31.7512C29.9029 31.4033 29.7936 31.0657 29.5977 30.7809C29.4017 30.4959 29.1277 30.2763 28.81 30.1493C28.4923 30.0224 28.1448 29.9939 27.8112 30.0672C27.4776 30.1405 27.1726 30.3126 26.9344 30.5617C26.6962 30.8109 26.5353 31.1262 26.4719 31.4682C26.4085 31.8101 26.4454 32.1636 26.578 32.4842C26.7105 32.8049 26.9329 33.0786 27.2172 33.2711C27.5015 33.4635 27.8351 33.5663 28.1765 33.5664C28.4087 33.5709 28.6393 33.5266 28.8541 33.4362C29.0687 33.3457 29.2629 33.2111 29.4243 33.0408C29.5857 32.8705 29.7109 32.668 29.7923 32.4462C29.8736 32.2243 29.9091 31.9876 29.8968 31.7512H29.9117Z" fill="white"/>
<path d="M33.2104 25.8478C33.2104 25.5733 33.2903 25.3049 33.4398 25.0767C33.5895 24.8484 33.8021 24.6705 34.0508 24.5654C34.2996 24.4603 34.5732 24.4328 34.8373 24.4864C35.1014 24.5399 35.3439 24.6722 35.5343 24.8662C35.7247 25.0604 35.8543 25.3077 35.9068 25.577C35.9594 25.8463 35.9324 26.1254 35.8295 26.3791C35.7264 26.6327 35.5519 26.8495 35.3281 27.002C35.1042 27.1545 34.841 27.2359 34.5717 27.2359C34.2113 27.234 33.8662 27.0871 33.6113 26.8272C33.3564 26.5673 33.2124 26.2154 33.2104 25.8478ZM33.4423 27.9071H35.6862V35.5952H33.4423V27.9071Z" fill="white"/>
<path d="M45.4694 31.7511C45.4965 32.2593 45.4249 32.768 45.2586 33.2479C45.0922 33.7277 44.8344 34.1693 44.5 34.5471C44.1656 34.925 43.7613 35.2316 43.3102 35.4495C42.8591 35.6673 42.3702 35.792 41.8717 35.8164C41.4531 35.8368 41.0352 35.7635 40.6476 35.6014C40.2599 35.4393 39.9118 35.1925 39.6278 34.8783V38.6918H37.3839V27.9071H39.6278V28.6317C39.9118 28.3175 40.2599 28.0706 40.6476 27.9085C41.0352 27.7464 41.4531 27.6731 41.8717 27.6935C42.3696 27.7179 42.8578 27.8424 43.3083 28.0597C43.759 28.2772 44.163 28.5831 44.4973 28.9602C44.8316 29.3372 45.0895 29.7778 45.2563 30.2567C45.4232 30.7357 45.4956 31.2436 45.4694 31.7511ZM43.2255 31.7511C43.2166 31.3932 43.1049 31.0457 42.9043 30.7518C42.7037 30.4579 42.423 30.2304 42.0969 30.0976C41.7708 29.9648 41.4135 29.9324 41.0696 30.0045C40.7256 30.0765 40.4099 30.25 40.1616 30.5032C39.9133 30.7564 39.7433 31.0782 39.6725 31.429C39.6019 31.7798 39.6337 32.144 39.7639 32.4765C39.8942 32.809 40.1172 33.0954 40.4055 33.2999C40.6937 33.5045 41.0344 33.6184 41.3855 33.6274C41.6305 33.6433 41.8759 33.6055 42.1055 33.5167C42.335 33.4277 42.5431 33.2898 42.716 33.1121C42.8889 32.9343 43.0225 32.7209 43.1078 32.4862C43.193 32.2515 43.2281 32.0009 43.2105 31.7511H43.2255Z" fill="white"/>
<path d="M52.4554 33.2919C52.4554 35.0614 50.9595 35.8165 49.314 35.8165C48.6566 35.8758 47.9969 35.7332 47.4197 35.407C46.8426 35.0807 46.3743 34.5859 46.0753 33.986L48.035 32.8496C48.1145 33.127 48.2848 33.3684 48.5175 33.5334C48.7502 33.6985 49.0312 33.7775 49.314 33.7572C49.86 33.7572 50.1293 33.5817 50.1293 33.2767C50.1293 32.4301 46.3895 32.8801 46.3895 30.2259C46.3895 28.5479 47.7807 27.7013 49.3813 27.7013C49.9719 27.683 50.5567 27.826 51.0748 28.1158C51.593 28.4054 52.0257 28.8311 52.3283 29.3487L50.3612 30.4013C50.2743 30.1999 50.1319 30.0285 49.9513 29.908C49.7707 29.7874 49.5598 29.723 49.3439 29.7224C48.955 29.7224 48.7156 29.875 48.7156 30.1572C48.7456 31.0343 52.4554 30.447 52.4554 33.2919Z" fill="white"/>
<path d="M60.7129 27.9072V35.5953H58.4689V34.8784C58.2079 35.197 57.8767 35.448 57.5023 35.6111C57.1279 35.7742 56.721 35.8445 56.3148 35.8166C54.8189 35.8166 53.495 34.7105 53.495 32.6283V27.9072H55.7389V32.2928C55.7192 32.4797 55.7405 32.6687 55.8014 32.8462C55.8622 33.0236 55.961 33.185 56.0906 33.3187C56.2202 33.4524 56.3775 33.5548 56.5508 33.6187C56.7241 33.6828 56.9093 33.7066 57.0927 33.6886C57.9155 33.6886 58.4914 33.2004 58.4914 32.1098V27.9072H60.7129Z" fill="white"/>
<path d="M73.6827 30.8816V35.5951H71.4387V31.08C71.4387 30.3173 71.0722 29.8138 70.3542 29.8138C69.6362 29.8138 69.1724 30.3554 69.1724 31.263V35.5951H66.9285V31.08C66.9285 30.3173 66.5695 29.8138 65.8439 29.8138C65.1185 29.8138 64.6697 30.3554 64.6697 31.263V35.5951H62.4258V27.9071H64.6697V28.6164C64.9042 28.3031 65.2118 28.0546 65.5645 27.8935C65.9172 27.7322 66.3038 27.6635 66.6891 27.6935C67.0762 27.6743 67.4615 27.7578 67.8075 27.9355C68.1535 28.1132 68.4485 28.3794 68.6638 28.7079C68.9141 28.3644 69.2457 28.0912 69.6277 27.9138C70.0096 27.7364 70.4294 27.6606 70.8478 27.6935C72.5532 27.6935 73.6827 28.9596 73.6827 30.8816Z" fill="white"/>
<path d="M75.5975 27.8615C76.5228 27.8615 77.2729 27.0966 77.2729 26.153C77.2729 25.2095 76.5228 24.4446 75.5975 24.4446C74.6722 24.4446 73.922 25.2095 73.922 26.153C73.922 27.0966 74.6722 27.8615 75.5975 27.8615Z" fill="white"/>
<path d="M27.7278 18.5564C32.0611 18.5564 35.5739 14.9742 35.5739 10.5555C35.5739 6.13677 32.0611 2.55469 27.7278 2.55469C23.3945 2.55469 19.8816 6.13677 19.8816 10.5555C19.8816 14.9742 23.3945 18.5564 27.7278 18.5564Z" fill="white"/>
<path d="M45.2674 18.5564C49.6007 18.5564 53.1135 14.9742 53.1135 10.5555C53.1135 6.13677 49.6007 2.55469 45.2674 2.55469C40.9341 2.55469 37.4213 6.13677 37.4213 10.5555C37.4213 14.9742 40.9341 18.5564 45.2674 18.5564Z" fill="white"/>
<path d="M18.0341 2.55469H2.34937V18.5487H18.0341V2.55469Z" fill="white"/>
</svg>

<svg width="80" height="42" fill="none" xmlns="http://www.w3.org/2000/svg"><path d="M2.334 24.376h2.244v11.22H2.334v-11.22ZM5.88 31.751a4.13 4.13 0 0 1 .67-2.265 4.012 4.012 0 0 1 1.79-1.503 3.922 3.922 0 0 1 2.309-.235 3.97 3.97 0 0 1 2.046 1.113c.56.57.941 1.295 1.096 2.085.154.79.076 1.61-.226 2.354a4.057 4.057 0 0 1-1.471 1.83 3.938 3.938 0 0 1-2.22.686 3.881 3.881 0 0 1-1.534-.297 3.944 3.944 0 0 1-1.301-.88 4.033 4.033 0 0 1-.865-1.324 4.096 4.096 0 0 1-.294-1.564Zm5.73 0a1.793 1.793 0 0 0-.315-.97 1.741 1.741 0 0 0-.787-.632 1.705 1.705 0 0 0-1.876.413c-.238.249-.4.564-.463.906-.063.342-.026.696.106 1.016.133.32.355.595.64.787.284.193.618.295.959.295a1.66 1.66 0 0 0 1.258-.52 1.728 1.728 0 0 0 .477-1.295ZM22.888 27.907v7.307c0 2.585-1.982 3.676-3.986 3.676a3.788 3.788 0 0 1-2.04-.42 3.882 3.882 0 0 1-1.528-1.44l1.93-1.137c.153.314.395.575.695.748.3.172.644.25.988.22a1.465 1.465 0 0 0 1.265-.388 1.552 1.552 0 0 0 .47-1.26v-.709c-.264.332-.6.594-.982.768a2.619 2.619 0 0 1-1.217.232 3.793 3.793 0 0 1-2.708-1.144 3.944 3.944 0 0 1-1.122-2.761c0-1.036.404-2.03 1.122-2.762a3.793 3.793 0 0 1 2.708-1.143c.417-.02.834.06 1.215.234.382.173.719.435.984.765v-.763l2.206-.023ZM20.682 31.6a1.89 1.89 0 0 0-.27-1.054 1.837 1.837 0 0 0-.803-.72 1.793 1.793 0 0 0-2.014.354 1.895 1.895 0 0 0-.43 2.037c.136.344.37.64.67.848a1.8 1.8 0 0 0 1.022.32 1.675 1.675 0 0 0 1.3-.48 1.742 1.742 0 0 0 .525-1.305ZM24.182 31.751a4.13 4.13 0 0 1 .67-2.265 4.012 4.012 0 0 1 1.79-1.503 3.922 3.922 0 0 1 2.309-.235 3.971 3.971 0 0 1 2.047 1.113 4.1 4.1 0 0 1 1.095 2.085c.155.79.076 1.61-.226 2.354a4.058 4.058 0 0 1-1.47 1.83 3.939 3.939 0 0 1-2.22.686 3.882 3.882 0 0 1-1.534-.297 3.944 3.944 0 0 1-1.302-.88 4.033 4.033 0 0 1-.865-1.324c-.199-.496-.299-1.028-.294-1.564Zm5.73 0a1.793 1.793 0 0 0-.314-.97 1.741 1.741 0 0 0-.788-.632 1.705 1.705 0 0 0-1.876.413 1.801 1.801 0 0 0-.356 1.923c.132.32.355.594.64.786.284.193.617.295.959.295a1.663 1.663 0 0 0 1.247-.525 1.731 1.731 0 0 0 .473-1.29h.015ZM33.21 25.848c0-.275.08-.543.23-.771.15-.229.362-.407.61-.512a1.336 1.336 0 0 1 1.484.301 1.414 1.414 0 0 1 .295 1.513c-.103.254-.277.47-.5.623a1.343 1.343 0 0 1-.757.234 1.355 1.355 0 0 1-.96-.409 1.41 1.41 0 0 1-.402-.98Zm.232 2.06h2.244v7.687h-2.244v-7.688ZM45.47 31.751a3.933 3.933 0 0 1-.211 1.497c-.167.48-.425.921-.759 1.3a3.791 3.791 0 0 1-1.19.901c-.45.218-.94.343-1.438.367a2.816 2.816 0 0 1-1.224-.215 2.865 2.865 0 0 1-1.02-.723v3.814h-2.244V27.907h2.244v.725a2.865 2.865 0 0 1 1.02-.724 2.816 2.816 0 0 1 1.224-.215c.498.025.986.15 1.436.367.451.217.855.523 1.19.9a3.928 3.928 0 0 1 .972 2.79Zm-2.245 0a1.855 1.855 0 0 0-.32-1 1.801 1.801 0 0 0-.808-.653 1.763 1.763 0 0 0-1.935.405 1.842 1.842 0 0 0-.49.926c-.07.35-.038.715.092 1.048.13.332.353.618.642.823.288.205.628.318.98.327a1.691 1.691 0 0 0 1.33-.515 1.76 1.76 0 0 0 .495-1.36h.014ZM52.455 33.292c0 1.77-1.495 2.524-3.141 2.524a3.254 3.254 0 0 1-1.894-.409 3.343 3.343 0 0 1-1.345-1.421l1.96-1.136c.08.277.25.518.483.683.232.166.513.245.796.224.546 0 .815-.175.815-.48 0-.847-3.74-.397-3.74-3.051 0-1.678 1.392-2.525 2.992-2.525a3.26 3.26 0 0 1 1.694.415c.518.29.95.715 1.253 1.233L50.361 30.4a1.131 1.131 0 0 0-.41-.493 1.098 1.098 0 0 0-.607-.186c-.389 0-.628.153-.628.435.03.877 3.74.29 3.74 3.135ZM60.713 27.907v7.688h-2.244v-.717c-.261.319-.592.57-.967.733a2.537 2.537 0 0 1-1.187.206c-1.496 0-2.82-1.106-2.82-3.189v-4.72h2.244v4.385a1.29 1.29 0 0 0 .352 1.026 1.237 1.237 0 0 0 1.002.37c.822 0 1.398-.489 1.398-1.58v-4.202h2.222ZM73.683 30.882v4.713h-2.244V31.08c0-.763-.367-1.266-1.085-1.266s-1.182.541-1.182 1.449v4.332H66.93V31.08c0-.763-.36-1.266-1.085-1.266s-1.174.541-1.174 1.449v4.332h-2.244v-7.688h2.244v.71c.234-.314.542-.562.894-.724.353-.16.74-.23 1.125-.2.387-.019.773.065 1.119.242.345.178.64.444.856.773.25-.344.582-.617.964-.794a2.44 2.44 0 0 1 1.22-.22c1.705 0 2.835 1.266 2.835 3.188ZM75.597 27.861c.926 0 1.676-.764 1.676-1.708s-.75-1.708-1.675-1.708c-.926 0-1.676.764-1.676 1.708s.75 1.709 1.675 1.709ZM27.728 18.556c4.333 0 7.846-3.582 7.846-8 0-4.42-3.513-8.001-7.846-8.001-4.334 0-7.846 3.582-7.846 8 0 4.42 3.512 8.001 7.846 8.001ZM45.267 18.556c4.334 0 7.846-3.582 7.846-8 0-4.42-3.512-8.001-7.846-8.001-4.333 0-7.846 3.582-7.846 8 0 4.42 3.513 8.001 7.846 8.001ZM18.034 2.555H2.35v15.994h15.685V2.555Z" fill="#fff"/></svg>
